X: 1
T: Hot Peppers at Midnight
P: piffero primo a0661
O: Arnow/Renzil/Punch
%R: reel
F: http://ancients.sudburymuster.org/mus/sng/pdf/hotpeppersC0.pdf
Z: 2020 John Chambers <jc:trillian.mit.edu>
M: 2/4
L: 1/16
K: D
|:\
FAde fedA | FAde d4 | defg afba | gfed dcBA |\
FAde fedA | FAde d4 |
[1 defg afbg | fedc d4 :|2 defg agfe | d2c2 B2A2 |:\
cAeA fAeA | cAaf ecAB |
cAeA fAeA | g6 f2 |\
cAeA fAeA | (3Bcd ef gefg | afge fdec | Bcdc BGGB :| (A4 a2) |]
